imgs/logo_language/pusher-icon-svgrepo-com.svg

<!DOCTYPE svg PUBLIC "-//W3C//DTD SVG 1.1//EN" "http://www.w3.org/Graphics/SVG/1.1/DTD/svg11.dtd">
<!-- Uploaded to: SVG Repo, www.svgrepo.com, Transformed by: SVG Repo Mixer Tools -->
<svg width="800px" height="800px" viewBox="-70 0 396 396" version="1.1" xmlns="http://www.w3.org/2000/svg" xmlns:xlink="http://www.w3.org/1999/xlink" preserveAspectRatio="xMidYMid" fill="#000000">
<g id="SVGRepo_bgCarrier" stroke-width="0"/>
<g id="SVGRepo_tracerCarrier" stroke-linecap="round" stroke-linejoin="round"/>
<g id="SVGRepo_iconCarrier"> <g> <path d="M127.994592,394.550526 L127.994592,295.502884 C127.994592,295.294931 128.108966,295.086979 128.30652,294.983003 L255.698051,221.492688 C255.888859,221.390435 256.005573,221.189205 256,220.972808 L256,192.816077 C256.007684,192.602014 255.897593,192.40079 255.712953,192.292178 C255.528313,192.183566 255.298947,192.18511 255.115785,192.296196 L128.888787,265.121064 C128.705625,265.232151 128.476259,265.233694 128.291619,265.125082 C128.106978,265.01647 127.996887,264.815246 128.00499,264.601183 L128.00499,236.423658 C128.00499,236.215705 128.108966,236.018151 128.296123,235.914175 L255.698051,162.42386 C255.882378,162.31504 255.996655,162.118011 256,161.903979 L256,133.747248 C255.994814,133.538507 255.88241,133.347083 255.702442,133.241219 C255.522473,133.135355 255.300549,133.130115 255.115785,133.227368 L128.888787,206.041838 C128.706749,206.157473 128.475708,206.163022 128.288329,206.05626 C128.10095,205.949497 127.987927,205.747911 127.994592,205.532355 L127.994592,177.365227 C127.994592,177.157275 128.108966,176.95972 128.30652,176.855744 L255.698051,103.396622 C255.887139,103.292599 256.003183,103.092524 256,102.876741 L256,74.3456965 C255.987316,73.9302634 255.769,73.5482104 255.417315,73.3267306 L128.587256,0.158741661 C128.224315,-0.0533079582 127.775266,-0.0533079582 127.412326,0.158741661 L103.289868,14.0811429 C103.104524,14.1836909 102.98949,14.3788035 102.98949,14.5906258 C102.98949,14.8024481 103.104524,14.9975607 103.289868,15.1001087 L229.516866,87.9145789 C229.691453,88.0251463 229.797267,88.2174087 229.797267,88.4240619 C229.797267,88.630715 229.691453,88.8229774 229.516866,88.9335448 L205.394409,102.845548 C205.024522,103.045206 204.578967,103.045206 204.209081,102.845548 L77.389419,29.6983547 C77.0033752,29.4754721 76.5277496,29.4754721 76.1417057,29.6983547 L52.0920314,43.5999606 C51.9066868,43.7025087 51.7916536,43.8976212 51.7916536,44.1094436 C51.7916536,44.3212659 51.9066868,44.5163785 52.0920314,44.6189265 L178.298234,117.443794 C178.488933,117.544679 178.60822,117.742736 178.60822,117.958476 C178.60822,118.174216 178.488933,118.372273 178.298234,118.473158 L154.175777,132.385161 C153.789733,132.608044 153.314107,132.608044 152.928063,132.385161 L26.1915822,59.2171724 C25.8055384,58.9942899 25.3299128,58.9942899 24.9438689,59.2171724 L1.42108547e-14,73.6490566 L1.42108547e-14,321.392935 C1.42108547e-14,321.600887 0.10397611,321.808839 0.30153072,321.902418 L24.7151215,335.991181 C24.8982833,336.102267 25.1276495,336.103811 25.3122895,335.995199 C25.4969296,335.886587 25.6070208,335.685363 25.5989184,335.4713 L25.5989184,89.4534254 C25.5947476,89.2412117 25.706384,89.0435405 25.890272,88.9375346 C26.0741599,88.8315286 26.3011633,88.8339838 26.4827153,88.9439424 L50.9171013,103.032705 C51.0834631,103.136681 51.1978368,103.334236 51.1978368,103.552586 L51.1978368,350.92215 C51.1978368,351.130103 51.3018129,351.338055 51.4889699,351.442031 L75.9025607,365.541192 C76.0887797,365.648707 76.3181593,365.648936 76.5045919,365.54179 C76.6910245,365.434645 76.806303,365.236338 76.8071528,365.021311 L76.8071528,118.972243 C76.7990504,118.75818 76.9091416,118.556956 77.0937817,118.448345 C77.2784218,118.339733 77.5077879,118.341276 77.6909498,118.452363 L102.104541,132.530728 C102.291698,132.634704 102.406071,132.842656 102.406071,133.050608 L102.406071,380.461763 C102.406071,380.669716 102.510047,380.86727 102.686807,380.981644 L127.173181,395.049612 C127.350928,395.134021 127.559284,395.122947 127.727082,395.02017 C127.89488,394.917394 127.999418,394.736822 128.00499,394.540129 L127.994592,394.550526 L127.994592,394.550526 Z" fill="#28b840"> </path> </g> </g>
</svg>

<svg xmlns="http://www.w3.org/2000/svg" width="800" height="800" preserveAspectRatio="xMidYMid" viewBox="-70 0 396 396"><path fill="#28b840" d="M127.995 394.55v-99.047c0-.208.114-.416.312-.52l127.391-73.49a.57.57 0 0 0 .302-.52v-28.157a.583.583 0 0 0-.884-.52l-126.227 72.825a.582.582 0 0 1-.884-.52v-28.177c0-.208.104-.406.291-.51l127.402-73.49a.62.62 0 0 0 .302-.52v-28.157a.604.604 0 0 0-.884-.52l-126.227 72.815a.582.582 0 0 1-.894-.51v-28.167c0-.208.114-.405.312-.51l127.391-73.458a.58.58 0 0 0 .302-.52V74.346a1.25 1.25 0 0 0-.583-1.02L128.587.16a1.17 1.17 0 0 0-1.175 0L103.29 14.08a.582.582 0 0 0 0 1.02l126.227 72.814a.603.603 0 0 1 0 1.019l-24.123 13.912c-.37.2-.815.2-1.185 0L77.39 29.698a1.25 1.25 0 0 0-1.247 0L52.092 43.6a.582.582 0 0 0 0 1.019l126.206 72.825a.582.582 0 0 1 0 1.03l-24.122 13.911a1.25 1.25 0 0 1-1.248 0L26.192 59.217a1.25 1.25 0 0 0-1.248 0L0 73.65v247.744c0 .208.104.416.302.51l24.413 14.088a.582.582 0 0 0 .884-.52V89.453a.582.582 0 0 1 .884-.51l24.434 14.09c.166.104.28.301.28.52v247.37c0 .207.105.415.292.519l24.414 14.1a.603.603 0 0 0 .904-.52v-246.05a.582.582 0 0 1 .884-.52l24.414 14.079a.6.6 0 0 1 .301.52v247.41a.62.62 0 0 0 .28.52l24.487 14.069a.582.582 0 0 0 .832-.51z"/></svg>
